icons/omega.svg

<svg width="24" height="24" viewBox="0 0 24 24" fill="none" xmlns="http://www.w3.org/2000/svg">
<path fill-rule="evenodd" clip-rule="evenodd" d="M12 5C10.5628 5 9.16053 5.52357 8.02861 6.49663C6.89537 7.47082 6.10114 8.83812 5.79223 10.3762C5.48326 11.9146 5.68146 13.5177 6.34935 14.9144C7.01688 16.3103 8.10835 17.4069 9.42907 18.0343C9.77778 18.1999 10 18.5515 10 18.9376V20C10 20.5523 9.55228 21 9 21H4C3.44772 21 3 20.5523 3 20C3 19.4477 3.44772 19 4 19H7.17683C6.06601 18.1709 5.16099 17.0653 4.54504 15.7772C3.68835 13.9857 3.43797 11.9413 3.83139 9.98241C4.22487 8.02319 5.24144 6.25519 6.72484 4.97999C8.20956 3.70366 10.0713 3 12 3C13.9287 3 15.7904 3.70366 17.2752 4.97999C18.7586 6.25519 19.7751 8.02319 20.1686 9.98241C20.562 11.9413 20.3117 13.9857 19.455 15.7772C18.839 17.0653 17.934 18.1709 16.8232 19H20C20.5523 19 21 19.4477 21 20C21 20.5523 20.5523 21 20 21H15C14.4477 21 14 20.5523 14 20V18.9376C14 18.5515 14.2222 18.1999 14.5709 18.0343C15.8916 17.4069 16.9831 16.3103 17.6506 14.9144C18.3185 13.5177 18.5167 11.9146 18.2078 10.3762C17.8989 8.83812 17.1046 7.47082 15.9714 6.49663C14.8395 5.52357 13.4372 5 12 5Z" fill="black"/>
</svg>

<svg
  width="24"
  height="24"
  viewBox="0 0 24 24"
  xmlns="http://www.w3.org/2000/svg"
>
  <path
    fill-rule="evenodd"
    clip-rule="evenodd"
    d="M12 5c-1.437 0-2.84.524-3.971 1.497-1.134.974-1.928 2.341-2.237 3.88a7.246 7.246 0 0 0 .557 4.537c.668 1.396 1.76 2.493 3.08 3.12a1 1 0 0 1 .571.904V20a1 1 0 0 1-1 1H4a1 1 0 1 1 0-2h3.177a8.693 8.693 0 0 1-2.632-3.223 9.246 9.246 0 0 1-.714-5.795c.394-1.959 1.41-3.727 2.894-5.002A8.087 8.087 0 0 1 12 3c1.929 0 3.79.704 5.275 1.98 1.484 1.275 2.5 3.043 2.894 5.002a9.246 9.246 0 0 1-.714 5.795A8.693 8.693 0 0 1 16.823 19H20a1 1 0 1 1 0 2h-5a1 1 0 0 1-1-1v-1.062a1 1 0 0 1 .57-.904c1.322-.627 2.413-1.724 3.08-3.12.669-1.396.867-3 .558-4.538-.31-1.538-1.103-2.905-2.237-3.88A6.087 6.087 0 0 0 12 5z"
  />
</svg>
